Numix-Light/16/status/indicator-keyboard-No-8.svg

<?xml version="1.0" encoding="UTF-8" standalone="no"?>
<svg
   xmlns:dc="http://purl.org/dc/elements/1.1/"
   xmlns:cc="http://creativecommons.org/ns#"
   xmlns:rdf="http://www.w3.org/1999/02/22-rdf-syntax-ns#"
   xmlns:svg="http://www.w3.org/2000/svg"
   xmlns="http://www.w3.org/2000/svg"
   xmlns:sodipodi="http://sodipodi.sourceforge.net/DTD/sodipodi-0.dtd"
   xmlns:inkscape="http://www.inkscape.org/namespaces/inkscape"
   viewBox="0 0 16 16"
   id="svg2"
   version="1.1"
   inkscape:version="0.91 r13725"
   sodipodi:docname="indicator-keyboard-No-8.svg">
  <metadata
     id="metadata14">
    <rdf:RDF>
      <cc:Work
         rdf:about="">
        <dc:format>image/svg+xml</dc:format>
        <dc:type
           rdf:resource="http://purl.org/dc/dcmitype/StillImage" />
      </cc:Work>
    </rdf:RDF>
  </metadata>
  <defs
     id="defs12" />
  <sodipodi:namedview
     pagecolor="#ffffff"
     bordercolor="#666666"
     borderopacity="1"
     objecttolerance="10"
     gridtolerance="10"
     guidetolerance="10"
     inkscape:pageopacity="0"
     inkscape:pageshadow="2"
     inkscape:window-width="459"
     inkscape:window-height="369"
     id="namedview10"
     showgrid="false"
     inkscape:zoom="14.75"
     inkscape:cx="8"
     inkscape:cy="8"
     inkscape:window-x="65"
     inkscape:window-y="24"
     inkscape:window-maximized="0"
     inkscape:current-layer="svg2" />
  <path
     style="fill:#353535;fill-opacity:1"
     d="M 1.5996094 0 C 0.71320937 2.9605947e-16 0 0.71320937 0 1.5996094 L 0 14.400391 C 2.9605947e-16 15.286791 0.71320937 16 1.5996094 16 L 14.400391 16 C 15.286791 16 16 15.286791 16 14.400391 L 16 1.5996094 C 16 0.71320937 15.286791 0 14.400391 0 L 1.5996094 0 z M 1.1386719 4.859375 L 1.625 4.859375 C 1.931 5.201375 2.2574687 5.596875 2.6054688 6.046875 C 2.9594688 6.490875 3.304625 6.9460625 3.640625 7.4140625 C 3.976625 7.8760625 4.2881719 8.3294375 4.5761719 8.7734375 C 4.8701719 9.2174375 5.110875 9.6055469 5.296875 9.9355469 L 5.296875 4.859375 L 5.9003906 4.859375 L 5.9003906 11.095703 L 5.3867188 11.095703 C 5.2727187 10.885703 5.1253125 10.639422 4.9453125 10.357422 C 4.7713125 10.075422 4.5791406 9.7750312 4.3691406 9.4570312 C 4.1591406 9.1330313 3.937125 8.80475 3.703125 8.46875 C 3.469125 8.12675 3.2359531 7.7965156 3.0019531 7.4785156 C 2.7739531 7.1545156 2.5481719 6.8503594 2.3261719 6.5683594 C 2.1101719 6.2863594 1.9161875 6.0438437 1.7421875 5.8398438 L 1.7421875 11.095703 L 1.1386719 11.095703 L 1.1386719 4.859375 z M 9.328125 6.3359375 C 9.640125 6.3359375 9.9255938 6.395625 10.183594 6.515625 C 10.441594 6.629625 10.663609 6.7937656 10.849609 7.0097656 C 11.041609 7.2197656 11.189016 7.4753906 11.291016 7.7753906 C 11.399016 8.0753906 11.453125 8.4074375 11.453125 8.7734375 C 11.453125 9.1394375 11.399016 9.4734375 11.291016 9.7734375 C 11.189016 10.073438 11.041609 10.327109 10.849609 10.537109 C 10.663609 10.747109 10.441594 10.913203 10.183594 11.033203 C 9.9255938 11.147203 9.640125 11.203125 9.328125 11.203125 C 9.016125 11.203125 8.7326094 11.147203 8.4746094 11.033203 C 8.2166094 10.913203 7.9908281 10.747109 7.7988281 10.537109 C 7.6128281 10.327109 7.4654219 10.073438 7.3574219 9.7734375 C 7.2554219 9.4734375 7.2050781 9.1394375 7.2050781 8.7734375 C 7.2050781 8.4074375 7.2554219 8.0753906 7.3574219 7.7753906 C 7.4654219 7.4753906 7.6128281 7.2197656 7.7988281 7.0097656 C 7.9908281 6.7937656 8.2166094 6.629625 8.4746094 6.515625 C 8.7326094 6.395625 9.016125 6.3359375 9.328125 6.3359375 z M 9.328125 6.8652344 C 8.866125 6.8652344 8.5004687 7.0406719 8.2304688 7.3886719 C 7.9604687 7.7306719 7.8261719 8.1914375 7.8261719 8.7734375 C 7.8261719 9.3554375 7.9604687 9.818156 8.2304688 10.160156 C 8.5004687 10.502156 8.866125 10.673828 9.328125 10.673828 C 9.7901249 10.673828 10.155781 10.502156 10.425781 10.160156 C 10.695781 9.8181561 10.832031 9.3554375 10.832031 8.7734375 C 10.832031 8.1914375 10.695781 7.7306719 10.425781 7.3886719 C 10.155781 7.0406719 9.7901249 6.8652344 9.328125 6.8652344 z M 13.597656 8.7539062 C 13.800456 8.7539062 13.9768 8.7852563 14.125 8.8476562 C 14.2732 8.9061562 14.392728 8.9845313 14.486328 9.0820312 C 14.583828 9.1795313 14.654366 9.2912156 14.697266 9.4160156 C 14.744066 9.5408156 14.767578 9.6681812 14.767578 9.8007812 C 14.767578 9.9294812 14.747984 10.049003 14.708984 10.158203 C 14.669984 10.263503 14.619041 10.361472 14.556641 10.451172 C 14.494241 10.536972 14.423703 10.613387 14.345703 10.679688 C 14.267703 10.745988 14.193241 10.800856 14.119141 10.847656 C 14.392141 10.964656 14.582206 11.111609 14.691406 11.287109 C 14.804506 11.462609 14.861328 11.64875 14.861328 11.84375 C 14.861328 12.01145 14.829978 12.164288 14.767578 12.304688 C 14.709078 12.445087 14.624825 12.566569 14.515625 12.667969 C 14.406425 12.765469 14.275141 12.841884 14.119141 12.896484 C 13.963141 12.954984 13.788756 12.984375 13.597656 12.984375 C 13.406556 12.984375 13.232172 12.956944 13.076172 12.902344 C 12.924072 12.847744 12.792788 12.771328 12.679688 12.673828 C 12.570488 12.572428 12.484275 12.454866 12.421875 12.322266 C 12.363375 12.185766 12.333984 12.038806 12.333984 11.878906 C 12.333984 11.742406 12.353578 11.618966 12.392578 11.509766 C 12.431578 11.396666 12.482522 11.296737 12.544922 11.210938 C 12.611222 11.121237 12.685678 11.042863 12.767578 10.976562 C 12.853378 10.906362 12.941556 10.845622 13.035156 10.794922 C 12.797256 10.677922 12.636581 10.540759 12.550781 10.380859 C 12.464981 10.220959 12.421875 10.046575 12.421875 9.859375 C 12.421875 9.691675 12.451266 9.5407968 12.509766 9.4042969 C 12.568266 9.2677969 12.6486 9.1521938 12.75 9.0585938 C 12.8553 8.9610937 12.978747 8.8866375 13.123047 8.8359375 C 13.267347 8.7813375 13.426056 8.7539062 13.597656 8.7539062 z M 13.597656 9.0820312 C 13.468956 9.0820312 13.355313 9.101625 13.257812 9.140625 C 13.160313 9.179625 13.078019 9.2344875 13.011719 9.3046875 C 12.949319 9.3709875 12.902288 9.4493625 12.867188 9.5390625 C 12.835987 9.6287624 12.820312 9.7208594 12.820312 9.8183594 C 12.820312 9.9275594 12.832069 10.027487 12.855469 10.117188 C 12.882769 10.206888 12.9298 10.289181 13 10.363281 C 13.0702 10.433481 13.168169 10.5001 13.292969 10.5625 C 13.417769 10.621 13.582356 10.677822 13.785156 10.732422 C 13.964556 10.631022 14.105637 10.505622 14.210938 10.357422 C 14.316237 10.209222 14.369141 10.023081 14.369141 9.8007812 C 14.369141 9.7110813 14.353466 9.6248624 14.322266 9.5390625 C 14.294966 9.4532625 14.2499 9.3768469 14.1875 9.3105469 C 14.129 9.2403469 14.052578 9.1854844 13.955078 9.1464844 C 13.857578 9.1035844 13.738056 9.0820312 13.597656 9.0820312 z M 13.363281 10.929688 C 13.164381 11.023287 13.011544 11.150647 12.902344 11.310547 C 12.793144 11.466547 12.738281 11.656606 12.738281 11.878906 C 12.738281 11.988106 12.755916 12.088041 12.791016 12.181641 C 12.826116 12.275241 12.879019 12.357534 12.949219 12.427734 C 13.023319 12.497934 13.111497 12.554756 13.216797 12.597656 C 13.325997 12.636656 13.453356 12.65625 13.597656 12.65625 C 13.741956 12.65625 13.867356 12.636656 13.972656 12.597656 C 14.081856 12.554756 14.170034 12.497934 14.240234 12.427734 C 14.314334 12.357534 14.369197 12.275241 14.404297 12.181641 C 14.439397 12.088041 14.457031 11.988106 14.457031 11.878906 C 14.457031 11.711206 14.423722 11.57405 14.357422 11.46875 C 14.295022 11.36345 14.212722 11.277238 14.107422 11.210938 C 14.006022 11.144638 13.888459 11.091734 13.755859 11.052734 C 13.627159 11.013734 13.495881 10.972587 13.363281 10.929688 z "
     id="path4" />
</svg>

<svg xmlns="http://www.w3.org/2000/svg" viewBox="0 0 16 16">
 <path d="m 1.6 0 c -0.886 0 -1.6 0.713 -1.6 1.6 l 0 12.801 c 0 0.886 0.713 1.6 1.6 1.6 l 12.801 0 c 0.886 0 1.6 -0.713 1.6 -1.6 l 0 -12.801 c 0 -0.886 -0.713 -1.6 -1.6 -1.6 l -12.801 0 z m -0.461 4.859 l 0.486 0 c 0.306 0.342 0.632 0.737 0.98 1.188 c 0.354 0.444 0.699 0.899 1.035 1.367 c 0.336 0.462 0.648 0.915 0.936 1.359 c 0.294 0.444 0.535 0.832 0.721 1.162 l 0 -5.076 l 0.604 0 l 0 6.236 l -0.514 0 c -0.114 -0.21 -0.261 -0.456 -0.441 -0.738 c -0.174 -0.282 -0.366 -0.582 -0.576 -0.9 c -0.21 -0.324 -0.432 -0.652 -0.666 -0.988 c -0.234 -0.342 -0.467 -0.672 -0.701 -0.99 c -0.228 -0.324 -0.454 -0.628 -0.676 -0.91 c -0.216 -0.282 -0.41 -0.525 -0.584 -0.729 l 0 5.256 l -0.604 0 l 0 -6.236 z m 8.189 1.477 c 0.312 0 0.597 0.06 0.855 0.18 c 0.258 0.114 0.48 0.278 0.666 0.494 c 0.192 0.21 0.339 0.466 0.441 0.766 c 0.108 0.3 0.162 0.632 0.162 0.998 c 0 0.366 -0.054 0.7 -0.162 1 c -0.102 0.3 -0.249 0.554 -0.441 0.764 c -0.186 0.21 -0.408 0.376 -0.666 0.496 c -0.258 0.114 -0.543 0.17 -0.855 0.17 c -0.312 0 -0.596 -0.056 -0.854 -0.17 c -0.258 -0.12 -0.484 -0.286 -0.676 -0.496 c -0.186 -0.21 -0.333 -0.464 -0.441 -0.764 c -0.102 -0.3 -0.152 -0.634 -0.152 -1 c 0 -0.366 0.05 -0.698 0.152 -0.998 c 0.108 -0.3 0.255 -0.556 0.441 -0.766 c 0.192 -0.216 0.418 -0.38 0.676 -0.494 c 0.258 -0.12 0.542 -0.18 0.854 -0.18 z m 0 0.529 c -0.462 0 -0.828 0.175 -1.098 0.523 c -0.27 0.342 -0.404 0.803 -0.404 1.385 c 0 0.582 0.134 1.045 0.404 1.387 c 0.27 0.342 0.636 0.514 1.098 0.514 c 0.462 0 0.828 -0.172 1.098 -0.514 c 0.27 -0.342 0.406 -0.805 0.406 -1.387 c 0 -0.582 -0.136 -1.043 -0.406 -1.385 c -0.27 -0.348 -0.636 -0.523 -1.098 -0.523 z m 4.27 1.889 c 0.203 0 0.379 0.031 0.527 0.094 c 0.148 0.059 0.268 0.137 0.361 0.234 c 0.098 0.098 0.168 0.209 0.211 0.334 c 0.047 0.125 0.07 0.252 0.07 0.385 c 0 0.129 -0.02 0.248 -0.059 0.357 c -0.039 0.105 -0.09 0.203 -0.152 0.293 c -0.062 0.086 -0.133 0.162 -0.211 0.229 c -0.078 0.066 -0.152 0.121 -0.227 0.168 c 0.273 0.117 0.463 0.264 0.572 0.439 c 0.113 0.176 0.17 0.362 0.17 0.557 c 0 0.168 -0.031 0.321 -0.094 0.461 c -0.059 0.14 -0.143 0.262 -0.252 0.363 c -0.109 0.098 -0.24 0.174 -0.396 0.229 c -0.156 0.059 -0.33 0.088 -0.521 0.088 c -0.191 0 -0.365 -0.027 -0.521 -0.082 c -0.152 -0.055 -0.283 -0.131 -0.396 -0.229 c -0.109 -0.101 -0.195 -0.219 -0.258 -0.352 c -0.059 -0.137 -0.088 -0.283 -0.088 -0.443 c 0 -0.136 0.02 -0.26 0.059 -0.369 c 0.039 -0.113 0.09 -0.213 0.152 -0.299 c 0.066 -0.09 0.141 -0.168 0.223 -0.234 c 0.086 -0.07 0.174 -0.131 0.268 -0.182 c -0.238 -0.117 -0.399 -0.254 -0.484 -0.414 c -0.086 -0.16 -0.129 -0.334 -0.129 -0.521 c 0 -0.168 0.029 -0.319 0.088 -0.455 c 0.058 -0.136 0.139 -0.252 0.24 -0.346 c 0.105 -0.098 0.229 -0.172 0.373 -0.223 c 0.144 -0.055 0.303 -0.082 0.475 -0.082 z m 0 0.328 c -0.129 0 -0.242 0.02 -0.34 0.059 c -0.097 0.039 -0.18 0.094 -0.246 0.164 c -0.062 0.066 -0.109 0.145 -0.145 0.234 c -0.031 0.09 -0.047 0.182 -0.047 0.279 c 0 0.109 0.012 0.209 0.035 0.299 c 0.027 0.09 0.074 0.172 0.145 0.246 c 0.07 0.07 0.168 0.137 0.293 0.199 c 0.125 0.059 0.289 0.115 0.492 0.17 c 0.179 -0.101 0.32 -0.227 0.426 -0.375 c 0.105 -0.148 0.158 -0.334 0.158 -0.557 c 0 -0.09 -0.016 -0.176 -0.047 -0.262 c -0.027 -0.086 -0.072 -0.162 -0.135 -0.229 c -0.059 -0.07 -0.135 -0.125 -0.232 -0.164 c -0.098 -0.043 -0.217 -0.064 -0.357 -0.064 z m -0.234 1.848 c -0.199 0.094 -0.352 0.221 -0.461 0.381 c -0.109 0.156 -0.164 0.346 -0.164 0.568 c 0 0.109 0.018 0.209 0.053 0.303 c 0.035 0.094 0.088 0.176 0.158 0.246 c 0.074 0.07 0.162 0.127 0.268 0.17 c 0.109 0.039 0.237 0.059 0.381 0.059 c 0.144 0 0.27 -0.02 0.375 -0.059 c 0.109 -0.043 0.197 -0.1 0.268 -0.17 c 0.074 -0.07 0.129 -0.152 0.164 -0.246 c 0.035 -0.094 0.053 -0.194 0.053 -0.303 c 0 -0.168 -0.033 -0.305 -0.1 -0.41 c -0.062 -0.105 -0.145 -0.192 -0.25 -0.258 c -0.101 -0.066 -0.219 -0.119 -0.352 -0.158 c -0.129 -0.039 -0.26 -0.08 -0.393 -0.123 z" style="fill:#353535;fill-opacity:1"/>
</svg>
